src/assets/Icons/key.svg

<svg width="66" height="66" viewBox="0 0 66 66" fill="none" xmlns="http://www.w3.org/2000/svg">
<rect x="5" y="5" width="56" height="56" rx="28" fill="#FEB477"/>
<path d="M37.0827 27.75L41.166 23.6666M43.4993 21.3333L41.166 23.6666L43.4993 21.3333ZM32.2877 32.545C32.8901 33.1394 33.3689 33.847 33.6967 34.6272C34.0245 35.4074 34.1947 36.2448 34.1975 37.091C34.2004 37.9373 34.0358 38.7758 33.7132 39.5582C33.3907 40.3406 32.9166 41.0514 32.3182 41.6498C31.7198 42.2482 31.0089 42.7223 30.2265 43.0449C29.4441 43.3674 28.6057 43.532 27.7594 43.5292C26.9132 43.5263 26.0758 43.3561 25.2956 43.0284C24.5154 42.7006 23.8077 42.2217 23.2133 41.6193C22.0445 40.4091 21.3977 38.7883 21.4124 37.1058C21.427 35.4234 22.1018 33.814 23.2915 32.6243C24.4812 31.4346 26.0906 30.7598 27.773 30.7452C29.4554 30.7305 31.0763 31.3773 32.2865 32.5461L32.2877 32.545ZM32.2877 32.545L37.0827 27.75L32.2877 32.545ZM37.0827 27.75L40.5827 31.25L44.666 27.1666L41.166 23.6666L37.0827 27.75Z" stroke="#9A4D0C" stroke-width="2.33333" stroke-linecap="round" stroke-linejoin="round"/>
<rect x="5" y="5" width="56" height="56" rx="28" stroke="#FFF2E8" stroke-width="10"/>
</svg>

<svg width="66" height="66" fill="none" xmlns="http://www.w3.org/2000/svg"><rect x="5" y="5" width="56" height="56" rx="28" fill="#FEB477"/><path d="m37.083 27.75 4.083-4.083m2.333-2.334-2.333 2.334 2.333-2.334ZM32.288 32.545a6.417 6.417 0 1 1-9.075 9.074 6.416 6.416 0 0 1 9.073-9.073l.002-.001Zm0 0 4.795-4.795-4.795 4.795Zm4.795-4.795 3.5 3.5 4.083-4.083-3.5-3.5-4.083 4.083Z" stroke="#9A4D0C" stroke-width="2.333" stroke-linecap="round" stroke-linejoin="round"/><rect x="5" y="5" width="56" height="56" rx="28" stroke="#FFF2E8" stroke-width="10"/></svg>
